X: 23645
T: Limerick Rake, The
R: waltz
M: 3/4
K: Eminor
|:E2|E2 G2 F2|E2 D2 E2|G2 A2 B2|e4 ee|d2 B2 B2|A2 F2 G2|A2 F2 E2|D4 D2|
E2 G2 F2|E2 D2 E2|G2 A2 B2|e4 e2|d2 B2 G2|A2 F2 D2|E2 E4|E4 B2|
B2 e2 e2|e2 f2 e2|d3 B ^c2|d4 d2|e2 d2 B2|A2 F2 G2|A2 F2 E2|D4 DD|
E2 G2 F2|E2 D2 E2|G3 A B2|e4 ee|d2 B2 G2|A2 F2 D2|E2 E4|E4:|

